icons/lines/box-time.svg

<svg xmlns="http://www.w3.org/2000/svg" width="24" height="24" viewBox="0 0 24 24" fill="none" stroke="currentColor" stroke-width="2" stroke-linecap="round" stroke-linejoin="round" >
  <path d="M3.16992 7.43994L11.9999 12.5499L20.7699 7.46991"/>
  <path d="M12 21.6099V12.5399"/>
  <path d="M21.6101 9.17V14.83C21.6101 14.88 21.6101 14.92 21.6001 14.97C20.9001 14.36 20.0001 14 19.0001 14C18.0601 14 17.1901 14.33 16.5001 14.88C15.5801 15.61 15.0001 16.74 15.0001 18C15.0001 18.75 15.2101 19.46 15.5801 20.06C15.6701 20.22 15.7801 20.37 15.9001 20.51L14.0701 21.52C12.9301 22.16 11.0701 22.16 9.93011 21.52L4.59012 18.56C3.38012 17.89 2.39014 16.21 2.39014 14.83V9.17C2.39014 7.79 3.38012 6.11002 4.59012 5.44002L9.93011 2.48C11.0701 1.84 12.9301 1.84 14.0701 2.48L19.4101 5.44002C20.6201 6.11002 21.6101 7.79 21.6101 9.17Z"/>
  <path d="M23 18C23 19.2 22.47 20.27 21.64 21C20.93 21.62 20.01 22 19 22C16.79 22 15 20.21 15 18C15 16.74 15.58 15.61 16.5 14.88C17.19 14.33 18.06 14 19 14C21.21 14 23 15.79 23 18Z" stroke-miterlimit="10"/>
  <path d="M19.25 16.75V18.25L18 19" stroke-miterlimit="10"/>
  </svg>

<svg xmlns="http://www.w3.org/2000/svg" width="24" height="24" viewBox="0 0 24 24" fill="none" stroke="currentColor" stroke-width="2" stroke-linecap="round" stroke-linejoin="round">
  <path d="M12 21.61v-9.07" />
  <path d="M19.25 16.75v1.5L18 19" />
  <path d="M21.61 14.83a.7.7 0 0 1-.01.14A4 4 0 0 0 15 18a4 4 0 0 0 .58 2.06 3 3 0 0 0 .32.45l-1.83 1.01c-1.14.64-3 .64-4.14 0l-5.34-2.96c-1.21-.67-2.2-2.35-2.2-3.73V9.17c0-1.38.99-3.06 2.2-3.73l5.34-2.96c1.14-.64 3-.64 4.14 0l5.34 2.96c1.21.67 2.2 2.35 2.2 3.73z" />
  <path d="M3.17 7.44 12 12.55l8.77-5.08" />
  <circle cx="19" cy="18" r="4" />
</svg>
